images/instagram-icon-grey.svg

<svg width="24" height="25" viewBox="0 0 24 25" fill="none" xmlns="http://www.w3.org/2000/svg">
<path d="M16.8503 0.630493H7.14973C3.20735 0.630493 0 3.85039 0 7.80818V17.5466C0 21.5044 3.20735 24.7243 7.14973 24.7243H16.8503C20.7926 24.7243 24 21.5044 24 17.5466V7.80818C24 3.85039 20.7926 0.630493 16.8503 0.630493ZM21.5856 17.5466C21.5856 20.1721 19.4655 22.3005 16.8503 22.3005H7.14973C4.5345 22.3005 2.4144 20.1721 2.4144 17.5466V7.80818C2.4144 5.18268 4.5345 3.05433 7.14973 3.05433H16.8503C19.4655 3.05433 21.5856 5.18268 21.5856 7.80818V17.5466Z" fill="#C4C4C4"/>
<path d="M12 6.44585C8.57729 6.44585 5.79272 9.24131 5.79272 12.6773C5.79272 16.1134 8.57729 18.9089 12 18.9089C15.4227 18.9089 18.2072 16.1134 18.2072 12.6773C18.2072 9.24127 15.4227 6.44585 12 6.44585ZM12 16.4851C9.90523 16.4851 8.20712 14.7803 8.20712 12.6774C8.20712 10.5744 9.90527 8.86969 12 8.86969C14.0947 8.86969 15.7928 10.5744 15.7928 12.6774C15.7928 14.7803 14.0947 16.4851 12 16.4851Z" fill="#C4C4C4"/>
<path d="M18.2193 7.98583C19.0408 7.98583 19.7067 7.3173 19.7067 6.49263C19.7067 5.66796 19.0408 4.99943 18.2193 4.99943C17.3979 4.99943 16.7319 5.66796 16.7319 6.49263C16.7319 7.3173 17.3979 7.98583 18.2193 7.98583Z" fill="#C4C4C4"/>
</svg>

<svg width="24" height="25" fill="none" xmlns="http://www.w3.org/2000/svg"><path d="M16.85.63h-9.7C3.207.63 0 3.85 0 7.808v9.739c0 3.957 3.207 7.177 7.15 7.177h9.7c3.943 0 7.15-3.22 7.15-7.177V7.808C24 3.85 20.793.63 16.85.63zm4.736 16.917c0 2.625-2.12 4.753-4.736 4.753h-9.7c-2.615 0-4.736-2.128-4.736-4.753V7.808c0-2.625 2.12-4.754 4.736-4.754h9.7c2.615 0 4.736 2.129 4.736 4.754v9.739z" fill="#C4C4C4"/><path d="M12 6.446c-3.423 0-6.207 2.795-6.207 6.231S8.577 18.91 12 18.91s6.207-2.796 6.207-6.232c0-3.436-2.784-6.231-6.207-6.231zm0 10.04a3.8 3.8 0 01-3.793-3.809A3.8 3.8 0 0112 8.87a3.8 3.8 0 013.793 3.807A3.8 3.8 0 0112 16.485zM18.22 7.986a1.49 1.49 0 001.487-1.493 1.49 1.49 0 00-1.488-1.494 1.49 1.49 0 00-1.487 1.494 1.49 1.49 0 001.487 1.493z" fill="#C4C4C4"/></svg>
